X:1
T:Obsequo Domine - Handl
T:#
%%score 1 2 3
L:1/8
Q:1/4=216
M:none
K:F
V:1 treble nm="Soprano" snm="S"
V:2 treble nm="Alto" snm="A"
V:3 treble-8 nm="Tenor" snm="T"
V:1
"^Obsecro Domine""^Jacob Handl\n (1550-91)" A12 B4 | A8 z4 F4- | F4 E4 F4 A4- | A4 G4 A8 | %4
w: Ob- se-|cro Do\-|* mi- ne, Do\-|* mi- ne,|
 z4 F8 E4 | F8 E8- |[M:4/2] E4 E4 E8 | z4 A8 G4 | (A6 G2 F8) | E6 E2 D8 | z4 A8 G4 | E4 F4 E8- | %12
w: ob- se-|cro Do\-|* mi- ne,|ob- se-|cro * *|Do- mi- ne,|mit- te|quem mis- su\-|
 E4 C4 C8 | z4 A8 G4 | E4 F4 E4 E4 | E4 E4 F8 | E4 ^G4 A8 | G4 c4 A8 | G4 A4 F8 | E8 A4 A4- | %20
w: * rus es,|mit- te|quem mis- su- rus|es, et vi-|de, et vi-|de, et vi-|de, et vi-|de af- fli\-|
 A4 G4 A8 | A4 A6 c2 A4 | (A4 G2 F2 G8) | A2 F4 A4 F4 E2 | F2 A4 c2 A4 A4 | A4 A8 ^G4 | A8 =G4 F4 | %27
w: * cti- o-|nem po- pu- li|tu\- * * *|i, po- pu- li tu-|i, po- pu- li tu-|i: Si- cut|lo- cu- tus|
 E16 | z4 A8 ^G4 | A8 G4 F4 | E4 G8 F4 | G4 A8 ^G4 | A16 | z4 (d6 ^c2 c4) | d4 A8 A4 | A16 || %36
w: es,|si- cut|lo- cu- tus|es, si- cut|lo- cu- tus|es,|ve\- * *|ni, ve- ni|ve-|
[M:3/2] A8 c4 | =B6 A2 ^G4 |[M:3/2] A8 A4 | =G6 F2 E4 | F8 F4 | E6 D2 ^C4 | D8 A4 | G6 F2 E4 | %44
w: ni, et|li- be- ra|nos, et|li- be- ra|nos, et|li- be- ra|nos, et|li- be- ra|
 (^F2 G2 A4) c4 | =B6 A2 ^G4 | A8 A4 | G6 F2 E4 | F8 F4 | E6 D2 ^C4 | D8 A4 | G6 F2 E4 | F8 F4 | %53
w: nos, * * et|li- be- ra|nos, et|li- be- ra|nos, et|li- be- ra|nos, et|li- be- ra|nos, et|
 E6 D2 ^C4 | D8[Q:1/4=267] A4 |[Q:1/4=262] A6[Q:1/4=258] A2[Q:1/4=255] A4 | %56
w: li- be- ra|nos, et|li- be- ra|
[Q:1/4=249] ^F8[Q:1/4=243] F4 |[Q:1/4=238] G6[Q:1/4=234] ^F2[Q:1/4=231] G4 |[Q:1/4=230] ^F12 |] %59
w: nos, et|li- be- ra|nos.|
V:2
 z8 D8- | D4 ^C4 D4 D4- | D4 E4 D4 E4- | E4 D4 E8 | z4 D8 E4 | D8 C4 =B,4 |[M:4/2] C4 C8 =B,4 | %7
w: Ob\-|* se- cro Do\-|* mi- ne, Do\-|* mi- ne,|ob- se-|cro Do- mi-|ne, ob- se-|
 ^C8 D6 D2 | E8 z4 D4- | D4 C4 A,4 =B,4 | (G,4 A,2 =B,2 C4) B,4 | (A,2 =B,2 C2 A,2 B,8) | %12
w: cro Do- mi-|ne, mit\-|* te quem mis-|su\- * * * rus|es, * * * *|
 C8 z4 E4- | E4 D4 =B,4 B,4 | A,4 C4 =B,8 | ^C8 D8 | ^C4 E4 E8 | E4 G4 F8 | E4 E4 D8 | ^C8 z4 F4 | %20
w: * mit\-|* te quem mis-|su- rus es,|et vi-|de, et vi-|de, et vi-|de, et vi-|de af-|
 E4 D4 E8 | F8 E8- | E4 F4 E2 (F4 E2) | F4 C4 D2 A,2 C4 | C8 z4 E4- | E4 D4 E8 | (E6 D2 E2 D2 C4- | %27
w: fli- cti- o-|nem po\-|* pu- li tu\- *|i, po- pu- li tu-|i: Si\-|* cut lo-|cu\- * * * *|
 C4) =B,4 A,4 E4- | E4 D4 E8 | C4 C4 E4 C4- | C4 =B,4 (A,2 B,2 C4) | =B,4 A,4 E4 E4- | E4 F4 E8 | %33
w: * tus es, si\-|* cut lo-|cu- tus es, si\-|* cut lo\- * *|cu- tus es, ve\-|* ni, ve-|
 F8 A8 | F4 (F6 E2 E4) | F8 E8 ||[M:3/2] ^F8 G4 | G6 E2 E4 |[M:3/2] E8 E4 | E6 C2 C4 | C8 C4 | %41
w: ni, ve-|ni, ve\- * *|ni, ve-|ni, et|li- be- ra|nos, et|li- be- ra|nos, et|
 C6 A,2 A,4 | A,8 F4 | E6 D2 ^C4 | (D2 E2 ^F4) G4 | G6 E2 E4 | E8 E4 | E6 C2 C4 | C8 C4 | %49
w: li- be- ra|nos, et|li- be- ra|nos, * * et|li- be- ra|nos, et|li- be- ra|nos, et|
 C6 A,2 A,4 | A,8 F4 | E6 D2 ^C4 | D8 =C4 | C6 A,2 A,4 | A,8 F4 | E6 D2 E4 | D12- | D12 | D12 |] %59
w: li- be- ra|nos, et|li- be- ra|nos, et|li- be- ra|nos, et|li- be- ra|nos.|||
V:3
 z16 | z4 A8 B4 | A8 (A6 =B2 | c2 A2 d8) ^c4 | (d6 =c2 A8) | z4 A8 ^G4 | %6
w: |Ob- se-|cro Do\- *|* * * mi-|ne, * *|ob- se-|
[M:4/2][K:treble-8] A8 E6 E2 | e8 z4 d4- | d4 ^c4 d8 | A6 A2 D4 d4- | d4 =c4 A4 =B4 | %11
w: cro Do- mi-|ne, ob\-|* se- cro|Do- mi- ne, mit\-|* te quem mis-|
 (c4 A6 ^G2) G4 | A4 A8 =G4 | E4 F4 (E4 e2 d2 | c2 =B2 A6 ^G2) G4 | A4 A4 A8 | A4 =B4 c8 | %17
w: su\- * * rus|es, mit- te|quem mis- su\- * *|* * * * rus|es, et vi-|de, et vi-|
 =B4 e4 c8 | c4 c4 A8 | A8 c4 c4 | c4 (d6 ^c2 c4) | d8 A8 | c4 d4 c8 | F2 A4 c2 F4 G4 | F4 A8 c4 | %25
w: de, et vi-|de, et vi-|de af- fli-|cti- o\- * *|nem po-|pu- li tu-|i, po- pu- li tu-|i, po- pu-|
 A8 =B8 | (A6 =B2 c8) | z4 d8 c4 | d8 c4 =B4 | (A6 =B2 c8) | z4 d8 c4 | d8 c4 =B4 | %32
w: li tu-|i: * *|Si- cut|lo- cu- tus|es, * *|si- cut|lo- cu- tus|
 ^c4 (d6 c2 c4) | (d2 e2 f2 d2 e8) | d8 A8 | z4 (d6 ^c2 c4) ||[M:3/2] d8 e4 | d6 c2 =B4 | %38
w: es, ve\- * *|ni, * * * *|ve- ni|ve\- * *|ni, et|li- be- ra|
[M:3/2][K:treble-8] c8 c4 | =B6 A2 G4 | A8 A4 | G6 F2 E4 | F8 F4 | c6 d2 A4 | d8 e4 | d6 c2 =B4 | %46
w: nos, et|li- be- ra|nos, et|li- be- ra|nos, et|li- be- ra|nos, et|li- be- ra|
 c8 c4 | =B6 A2 G4 | A8 A4 | G6 F2 E4 | F8 F4 | c6 d2 A4 | D8 A4 | G6 F2 E4 | D8 d4 | ^c6 d2 c4 | %56
w: nos, et|li- be- ra|nos, et|li- be- ra|nos, et|li- be- ra|nos, et|li- be- ra|nos, et|li- be- ra|
 d8 A4 | B6 A2 B4 | A12 |] %59
w: nos, et|li- be- ra|nos.|

